priv/static/svgs/icons_new/shop-buy-crypto.svg

<svg width="32" height="32" viewBox="0 0 32 32" fill="none" xmlns="http://www.w3.org/2000/svg">
<path d="M21.2088 10.4108H22.6135C22.9342 10.4134 23.2489 10.4968 23.5269 10.653C23.805 10.8092 24.0371 11.0329 24.2007 11.3024M24.4539 22.8554V25.2024C24.4481 25.6774 24.2523 26.1314 23.9084 26.4672C23.5645 26.8031 23.0997 26.9943 22.6134 27H7.83682C7.35113 26.9934 6.88729 26.8018 6.54417 26.466C6.20105 26.1302 6.00578 25.6768 6 25.2024V11.5898M8.61944 10.4435H7.09932C6.95087 10.4482 6.80486 10.4817 6.66982 10.5421C6.53478 10.6025 6.41342 10.6885 6.31283 10.7952C6.21223 10.9019 6.13442 11.0272 6.08394 11.1636C6.03346 11.3 6.01132 11.4449 6.01883 11.5897C6.01486 11.7311 6.03982 11.8718 6.09224 12.0036C6.14467 12.1354 6.22351 12.2557 6.32414 12.3574C6.42477 12.459 6.54517 12.5401 6.67828 12.5957C6.81139 12.6513 6.95453 12.6805 7.09932 12.6814H22.6322C23.1224 12.6871 23.5905 12.8814 23.935 13.2219C24.2796 13.5625 24.4728 14.022 24.4727 14.5008V15.2795M12.2485 8.11841H15.8402C16.032 8.11841 16.2219 8.1553 16.3991 8.22698C16.5763 8.29866 16.7373 8.40373 16.8729 8.53619C17.0085 8.66864 17.1161 8.82588 17.1895 8.99894C17.2629 9.172 17.3007 9.35749 17.3007 9.5448C17.3007 9.73212 17.2629 9.91761 17.1895 10.0907C17.1161 10.2637 17.0085 10.421 16.8729 10.5534C16.7373 10.6859 16.5763 10.7909 16.3991 10.8626C16.2219 10.9343 16.032 10.9712 15.8402 10.9712M15.8402 10.9712H13.5488M15.8402 10.9712C16.5071 10.9712 17.33 11.6516 17.5535 12.3321M13.4929 6.8811V12.6195M15.4711 6.88113V8.09648M8.73869 12.4486C8.64525 12.0241 8.59903 11.591 8.60084 11.1568C8.60084 9.52392 9.26501 7.95792 10.4473 6.80329C11.6295 5.64866 13.233 5 14.9049 5C16.5768 5 18.1803 5.64866 19.3625 6.80329C20.5448 7.95792 21.2089 9.52392 21.2089 11.1568C21.2095 11.5911 21.1621 12.0242 21.0674 12.4486M17.8889 22.779C17.4039 22.7724 16.9406 22.5813 16.5976 22.2463C16.2545 21.9112 16.0588 21.4588 16.0521 20.985V18.7108C16.0579 18.2364 16.2531 17.783 16.5963 17.4473C16.9394 17.1115 17.4032 16.9198 17.8889 16.9132H24.8823C25.1787 16.9132 25.463 17.0283 25.6726 17.233C25.8822 17.4377 26 17.7154 26 18.0049V21.6873C26 21.9768 25.8822 22.2545 25.6726 22.4592C25.463 22.6639 25.1787 22.779 24.8823 22.779H17.8889Z" stroke="black" stroke-linecap="round" stroke-linejoin="round"/>
<circle cx="18.8361" cy="19.8837" r="0.8" fill="black"/>
</svg>

<svg width="32" height="32" viewBox="0 0 32 32" fill="none" xmlns="http://www.w3.org/2000/svg">
  <symbol id="item" viewBox="0 0 32 32" stroke-width="1" fill="none">
    <path d="M21.209 10.41h1.404c.321.003.636.087.914.243s.51.38.674.65m.253 11.552v2.347a1.798 1.798 0 0 1-.546 1.265 1.885 1.885 0 0 1-1.295.533H7.837a1.885 1.885 0 0 1-1.293-.534A1.799 1.799 0 0 1 6 25.202V11.59m2.62-1.146H7.1a1.14 1.14 0 0 0-.787.351 1.087 1.087 0 0 0-.294.795 1.04 1.04 0 0 0 .305.767 1.09 1.09 0 0 0 .775.324h15.533c.49.006.958.2 1.303.54.345.341.538.801.538 1.28v.779M12.249 8.117h3.591a1.49 1.49 0 0 1 1.033.418 1.425 1.425 0 0 1 .428 1.009 1.398 1.398 0 0 1-.428 1.008 1.462 1.462 0 0 1-1.033.418m0 0H13.55m2.291 0c.667 0 1.49.68 1.713 1.361m-4.06-5.45v5.738M15.47 6.88v1.215M8.74 12.45a6.085 6.085 0 0 1 1.709-5.645A6.381 6.381 0 0 1 14.904 5c1.672 0 3.275.649 4.458 1.803a6.085 6.085 0 0 1 1.846 4.354c0 .434-.047.867-.142 1.292m-3.178 10.33a1.885 1.885 0 0 1-1.291-.533 1.798 1.798 0 0 1-.546-1.261v-2.274c.006-.475.201-.928.544-1.264a1.885 1.885 0 0 1 1.293-.534h6.993c.297 0 .581.115.79.32.21.205.328.482.328.772v3.682c0 .29-.118.567-.327.772-.21.205-.494.32-.79.32h-6.994Z" stroke="currentColor" stroke-linecap="round" stroke-linejoin="round"/><circle cx="18.836" cy="19.884" r=".8" fill="currentColor"/>
  </symbol>
</svg>
